src/img/wave.svg

<svg xmlns="http://www.w3.org/2000/svg" width="1360" height="600" preserveAspectRatio="none"><g fill="none" mask="url(&quot;#a&quot;)"><path fill="rgba(197, 248, 251, 1)" d="M0 0h1360v600H0z"/><path fill="rgba(255, 255, 255, 1)" d="M0 291c34 12.4 102 87.6 170 62 68-25.6 102-201.2 170-190 68 11.2 102 261 170 246S612 102.4 680 88c68-14.4 102 242.8 170 249 68 6.2 102-254 170-218s102 416.4 170 398c68-18.4 136-392 170-490v573H0z"/></g><defs><mask id="a"><path fill="#fff" d="M0 0h1360v600H0z"/></mask></defs></svg>

<svg xmlns="http://www.w3.org/2000/svg" version="1.1" xmlns:xlink="http://www.w3.org/1999/xlink" xmlns:svgjs="http://svgjs.com/svgjs" width="1360" height="600" preserveAspectRatio="none" viewBox="0 0 1360 600"><g mask="url(&quot;#SvgjsMask1092&quot;)" fill="none"><rect width="1360" height="600" x="0" y="0" fill="rgba(197, 248, 251, 1)"></rect><path d="M 0,291 C 34,303.4 102,378.6 170,353 C 238,327.4 272,151.8 340,163 C 408,174.2 442,424 510,409 C 578,394 612,102.4 680,88 C 748,73.6 782,330.8 850,337 C 918,343.2 952,83 1020,119 C 1088,155 1122,535.4 1190,517 C 1258,498.6 1326,125 1360,27L1360 600L0 600z" fill="rgba(255, 255, 255, 1)"></path></g><defs><mask id="SvgjsMask1092"><rect width="1360" height="600" fill="#ffffff"></rect></mask></defs></svg>
